packages/ui/public/icons/heart.svg

<svg width="17" height="17" viewBox="0 0 17 17" fill="none" xmlns="http://www.w3.org/2000/svg">
<path d="M7.68842 15.8983C8.16156 16.2588 8.79643 16.2588 9.26956 15.8983C11.6342 14.0964 13.8986 12.0234 15.465 9.37059C16.2497 8.04157 16.5786 6.96677 16.708 6.08791C16.7603 5.77845 16.7876 5.4592 16.7876 5.13283C16.7876 2.29804 14.7266 0 12.1842 0C10.6648 0 9.31737 0.820718 8.47899 2.08624C7.64061 0.820718 6.29317 0 4.77381 0C2.23142 0 0.17041 2.29804 0.17041 5.13283C0.17041 5.4592 0.197729 5.77845 0.249957 6.08791C0.379336 6.96677 0.708272 8.04157 1.49302 9.37059C3.05943 12.0234 5.32382 14.0964 7.68842 15.8983Z" fill="#FBFBFB"/>
</svg>

<svg width="17" height="17" fill="none" xmlns="http://www.w3.org/2000/svg"><path d="M7.688 15.898c.474.36 1.108.36 1.582 0 2.364-1.802 4.629-3.875 6.195-6.527.785-1.33 1.114-2.404 1.243-3.283.052-.31.08-.629.08-.955C16.788 2.298 14.727 0 12.184 0c-1.52 0-2.867.82-3.705 2.086C7.641.821 6.293 0 4.774 0 2.23 0 .17 2.298.17 5.133c0 .326.028.645.08.955.13.879.458 1.954 1.243 3.283 1.566 2.652 3.83 4.725 6.195 6.527Z" fill="#FBFBFB"/></svg>
